svg/weight_lifter.svg

<svg xmlns="http://www.w3.org/2000/svg" viewBox="0 0 24 24"><path d="M12 5c-1.11 0-2 .89-2 2s.89 2 2 2 2-.89 2-2-.89-2-2-2m10-4v5h-2V4H4v2H2V1h2v2h16V1zm-7 10.26V23h-2v-5h-2v5H9V11.26C6.93 10.17 5.5 8 5.5 5.5V5h2v.5C7.5 8 9.5 10 12 10s4.5-2 4.5-4.5V5h2v.5c0 2.5-1.43 4.67-3.5 5.76"/></svg>

<?xml version="1.0" encoding="UTF-8"?><!DOCTYPE svg PUBLIC "-//W3C//DTD SVG 1.1//EN" "http://www.w3.org/Graphics/SVG/1.1/DTD/svg11.dtd"><svg xmlns="http://www.w3.org/2000/svg" xmlns:xlink="http://www.w3.org/1999/xlink" version="1.1" id="mdi-weight-lifter" width="24" height="24" viewBox="0 0 24 24"><path d="M12 5C10.89 5 10 5.89 10 7S10.89 9 12 9 14 8.11 14 7 13.11 5 12 5M22 1V6H20V4H4V6H2V1H4V3H20V1H22M15 11.26V23H13V18H11V23H9V11.26C6.93 10.17 5.5 8 5.5 5.5L5.5 5H7.5L7.5 5.5C7.5 8 9.5 10 12 10S16.5 8 16.5 5.5L16.5 5H18.5L18.5 5.5C18.5 8 17.07 10.17 15 11.26Z" /></svg>
